!!!!SEGMENT: Gom2012-Inter_natos_mulierum
!!!id: Gom2012
!!!AGN: Motet
!!!voices: 4
!!!COM: Nicolas Gombert
!!!OTL: Inter natos mulierum
**kern	**kern	**kern	**kern
*part4	*part3	*part2	*part1
*staff4	*staff3	*staff2	*staff1
*I"Bassus	*I"Tenor	*I"Altus	*I"Superius
*I'B.	*I'T.	*I'A.	*I'S.
*clefF4	*clefGv2	*clefGv2	*clefGv2
*k[b-]	*k[b-]	*k[b-]	*k[b-]
*M2/1	*M2/1	*M2/1	*M2/1
*met(C|)	*met(C|)	*met(C|)	*met(C|)
=1	=1	=1	=1
!!section: Prima pars: Inter natos mulierum
!!!OMD: Prima pars: Inter natos mulierum
1.D	0r	0r	0r
2BB-y	.	.	.
=2	=2	=2	=2
1C	0r	0r	1r
[1BB-y	.	.	[1d
=3	=3	=3	=3
2BB-]	0r	0r	2d]
2GG	.	.	2B-y
2AA	.	.	1c
2AA	.	.	.
=4	=4	=4	=4
0GG	1.d	0r	1.B-y
.	2B-y	.	2G
=5	=5	=5	=5
1r	1c	1r	2A
.	.	.	2A
[1GG	[1B-y	[1d	[1G
=6	=6	=6	=6
1GG]	2B-]	2d]	1G]
.	2G	2B-y	.
1FF	2A	1c	1r
.	2A	.	.
=7	=7	=7	=7
0GG	1.G	1.B-y	1.d
.	4F	2G	2d
.	4E	.	.
=8	=8	=8	=8
1DD	1F	2A	1d
.	.	2A	.
[1GG	2G	[1G	1d
.	[2B-y	.	.
=9	=9	=9	=9
0GG]	4B-]	1G]	1r
.	4A	.	.
.	4B-y	.	.
.	4c	.	.
.	[1d	1r	[1G
=10	=10	=10	=10
1r	0d]	0r	2G]
.	.	.	2A
[1GG	.	.	2B-y
.	.	.	2G
=11	=11	=11	=11
2GG]	0r	1.D	2.B-y
2AA	.	.	.
.	.	.	4c
2BB-y	.	.	[1d
2GG	.	2E	.
=12	=12	=12	=12
2.BB-y	1.D	2F	2d]
.	.	2D	4c
4C	.	.	4B-y
[1D	.	2.F	1A
.	2E	.	.
.	.	4G	.
=13	=13	=13	=13
2D]	2F	1.A	1d
4C	2D	.	.
4BB-y	.	.	.
[1AA	2.F	.	[1c
.	.	4G	.
.	4G	4F	.
=14	=14	=14	=14
0AA]	1.A	1E	2c]
.	.	.	2c
.	.	1r	1c
.	4G	.	.
.	4F	.	.
=15	=15	=15	=15
1GG	2G	1.G	1.B-y
.	2D	.	.
1r	2d	.	.
.	2c	2A	[2F
=16	=16	=16	=16
1.GG	2d	2B-y	4F]
.	.	.	8GL
.	.	.	8AJ
.	2.d	2G	1B-y
.	.	2.B-y	.
.	4c	.	.
2AA	4B-y	.	4A
.	4A	4c	4G
=17	=17	=17	=17
2BB-y	2.B-y	0d	2F
2GG	.	.	2.G
.	8AL	.	.
.	8GJ	.	.
2.BB-y	1F	.	.
.	.	.	4A
.	.	.	2B-y
4C	.	.	.
=18	=18	=18	=18
1.D	2.F	2r	0A
.	.	2d	.
.	4G	.	.
.	4A	2.d	.
.	4B-y	.	.
4C	[2c	.	.
4BB-y	.	4e	.
=19	=19	=19	=19
1.AA	2c]	2f	2r
.	4C	2e	1A
.	4D	.	.
.	4E	2f	.
.	4C	.	.
[2C	[2c	[2e	2G
=20	=20	=20	=20
2C]	4c]	4e]	2G
.	4B-y	4d	.
2D	4A	1d	2F
.	4G	.	.
1AA	[1A	.	1E
.	.	2c#i	.
=21	=21	=21	=21
0r	1A]	0d	1D
.	1G	.	2r
.	.	.	2G
=22	=22	=22	=22
1.GG	2r	4r	2G
.	.	4d	.
.	2D	2d	2B-y
.	2D	2d	2G
2GG	[2d	[2G	[2B-y
=23	=23	=23	=23
2BB-y	4d]	2G]	4B-]
.	4c	.	4c
2GG	1B-y	4F	1d
.	.	4E	.
2.BB-y	.	2D	.
.	4A	[2d	4c
4C	4G	.	4B-y
=24	=24	=24	=24
2D	2F	2d]	2A
2E-i	1G	2c	2G
1D	.	2.d	1A
.	4F	.	.
.	4E	4c	.
=25	=25	=25	=25
0G	0D	1B-y	2G
.	.	.	1B-y
.	.	2r	.
.	.	2G	4A
.	.	.	4G
=26	=26	=26	=26
2r	2r	2G	2d
1GG	2D	2B-y	2d
.	2D	2G	2d
2GG	[2d	[2B-y	[2G
=27	=27	=27	=27
2BB-y	4d]	4B-]	2G]
.	4c	4c	.
2GG	1B-y	1d	4F
.	.	.	4E
2.BB-y	.	.	2D
.	4A	4c	[2d
4C	4G	4B-y	.
=28	=28	=28	=28
2D	2F	2A	2d]
2E-i	1G	2G	2c
1D	.	1A	[1d
.	2F#i	.	.
=29	=29	=29	=29
0GG	[0G	0B-y	1d]
.	.	.	1r
=30	=30	=30	=30
1r	1G]	0r	0G
[1GG	1r	.	.
=31	=31	=31	=31
1GG]	1r	0D	2.B-y
.	.	.	4c
2.BB-y	[1D	.	[1d
4C	.	.	.
=32	=32	=32	=32
1.D	1D]	2.F	0d]
.	.	4G	.
.	2.F	[1A	.
4C	.	.	.
4BB-y	4G	.	.
=33	=33	=33	=33
[0AA	1.A	2A]	[0d
.	.	2.F	.
.	.	4G	.
.	[2F	[2A	.
=34	=34	=34	=34
0AA]	4F]	2A]	1d]
.	4G	.	.
.	1A	4G	.
.	.	4F	.
.	.	1E	1r
.	4G	.	.
.	4F	.	.
=35	=35	=35	=35
[0GG	1E-X	1r	0G
.	[1D	[1G	.
=36	=36	=36	=36
0GG]	1D]	1G]	2.B-y
.	.	.	4c
.	1r	2.B-y	[1d
.	.	4c	.
=37	=37	=37	=37
1r	0D	1.d	2d]
.	.	.	2.B-y
[1D	.	.	.
.	.	.	4c
.	.	[2B-y	[2d
=38	=38	=38	=38
1D]	2.F	4B-]	2d]
.	.	4c	.
.	.	2d	4c
.	4G	.	4B-y
2.F	[1A	[1D	2A
.	.	.	4B-y
4G	.	.	4c
=39	=39	=39	=39
1.A	2A]	1D]	[0d
.	2.F	.	.
.	.	2.F	.
.	4G	.	.
[2F	2A	.	.
.	.	4G	.
=40	=40	=40	=40
4F]	2.D	2A	0d]
4G	.	.	.
2.A	.	2.A	.
.	4E	.	.
.	2F	.	.
4G	.	4F	.
4F	4D	4G	.
4E	4E	4A	.
=41	=41	=41	=41
2D	4F	4B-y	1r
.	4G	4c	.
2F	1A	1d	.
1E	.	.	2r
.	2G	2c#i	2e
=42	=42	=42	=42
1D	1A	0d	1f
2r	2r	.	2.f
2D	2A	.	.
.	.	.	4e
=43	=43	=43	=43
2D	2A	0r	1d
2BB-y	2G	.	.
2C	2A	.	2c
2D	2F	.	2A
=44	=44	=44	=44
2GG	2G	0r	1B-y
1G	2G	.	.
.	2D	.	1A
2F#i	2D	.	.
=45	=45	=45	=45
2G	2r	2r	2G
2D	2A	2d	2F
1E	2A	2d	1G
.	2G	2c	.
=46	=46	=46	=46
1D	2A	2d	1F
.	2F	2A	.
2r	2G	2B-y	1r
2AA	2A	2c	.
=47	=47	=47	=47
2.BB-y	2D	2.d	2r
.	2F	.	2d
4AA	.	8cL	.
.	.	8B-yJ	.
1AA	1E	1A	2d
.	.	.	2c#i
=48	=48	=48	=48
2BB-y	1D	2r	2d
2GG	.	2d	2B-y
2AA	1r	2c	2c
2BB-y	.	[2B-y	2d
=49	=49	=49	=49
2C	2r	4B-]	2G
.	.	4c	.
1D	2G	4d	2B-y
.	.	4e	.
.	2F	2f	1A
[2C	2E	[2c	.
=50	=50	=50	=50
2C]	2G	4c]	2G
.	.	8B-yL	.
.	.	8AJ	.
2BB-y	2D	1G	2B-y
1AA	2E	.	2c
.	2C	2F	2c
=51	=51	=51	=51
2GG	2.D	2G	2.B-y
1BB-y	.	1d	.
.	4E	.	4B-y
.	2.F	.	2B-y
2FF	.	2c	2A
.	4D	.	.
=52	=52	=52	=52
1GG	4E	1B-y	0d
.	4F	.	.
.	1G	.	.
1D	.	1A	.
.	2F#i	.	.
=53	=53	=53	=53
0GG	[0G	0B-y	1d
.	.	.	1r
=54	=54	=54	=54
1r	1G]	0r	0G
[1GG	1r	.	.
=55	=55	=55	=55
1GG]	1r	0D	2.B-y
.	.	.	4c
2.BB-y	[1D	.	[1d
4C	.	.	.
=56	=56	=56	=56
1.D	1D]	2.F	0d]
.	.	4G	.
.	2.F	[1A	.
4C	.	.	.
4BB-y	4G	.	.
=57	=57	=57	=57
[0AA	1.A	2A]	[0c
.	.	2.F	.
.	.	4G	.
.	[2F	[2A	.
=58	=58	=58	=58
0AA]	4F]	2A]	1c]
.	4G	.	.
.	1A	4G	.
.	.	4F	.
.	.	1E	1r
.	4G	.	.
.	4F	.	.
=59	=59	=59	=59
[0GG	1E	1r	0G
.	[1D	[1G	.
=60	=60	=60	=60
0GG]	1D]	1G]	2.B-y
.	.	.	4c
.	1r	2.B-y	[1d
.	.	4c	.
=61	=61	=61	=61
1r	0D	1.d	2d]
.	.	.	2.B-y
[1D	.	.	.
.	.	.	4c
.	.	[2B-y	[2d
=62	=62	=62	=62
1D]	2.F	4B-]	2d]
.	.	4c	.
.	.	2d	4c
.	4G	.	4B-y
2.F	[1A	[1D	2A
.	.	.	4B-y
4G	.	.	4c
=63	=63	=63	=63
1.A	2A]	1D]	[0d
.	2.F	.	.
.	.	2.F	.
.	4G	.	.
[2F	2A	.	.
.	.	4G	.
=64	=64	=64	=64
4F]	2.D	2A	0d]
4G	.	.	.
2.A	.	2.A	.
.	4E	.	.
.	2F	.	.
4G	.	4F	.
4F	4D	4G	.
4E	4E	4A	.
=65	=65	=65	=65
2D	4F	4B-y	1d
.	4G	4c	.
2F	1A	1d	.
1E	.	.	2r
.	2G	2c#i	2e
=66	=66	=66	=66
2D	2A	2d	1f
2BB-y	2B-y	4r	.
.	.	4d	.
[1C	[1Gl	[1c	[1e
=67	=67	=67	=67
2C]	0G_	2c]	1e]
2C	.	2c	.
[1GGl	.	[1B-yl	[1dl
=68	=68	=68	=68
0GG]	0G]	0B-]	0d]
==	==	==	==
*-	*-	*-	*-
!!!system-decoration: s1,s2,s3,s4
!!!RDF**kern: i = editorial accidental
!!!RDF**kern: l = terminal long
!!!ENC: Janosch Umbreit
!!!END: 2025/12/09
!!!EED: Benjamin Ory
!!!EEV: 2026/02/11
!!!YEC: Copyright 2026 Benjamin Ory, All Rights Reserved
!!!ONB: Translated from MusicXML on 2026/02/11
